X: 11162
T: Duncan Davidson's
R: strathspey
M: 4/4
K: Dmajor
DFAB A<F d2|DFAB A<F E2|DFAB A<F d>e|1 (3fed (3efg (3fed (3cBA:|2 (3fed (3efg f<d d>e||
f<d d>f gfed|<cA A>B cd e>g|f<d d>f gfed|(3Bcd (3efg f<d d>e|
f<d d>f gfed|<cA A>B cd e>g|(3fed (3edc (3dcB (3AGF|(3GAB (3AGF G<E E2||

